icons/toilet_paper.svg

<svg width="48" height="48" viewBox="0 0 48 48" fill="none" xmlns="http://www.w3.org/2000/svg">
<path fill-rule="evenodd" clip-rule="evenodd" d="M21.3039 11.6503C21.3164 11.6866 21.3923 11.8715 21.8461 12.1033C22.3514 12.3613 23.1193 12.5504 24.0222 12.5504C24.925 12.5504 25.6929 12.3613 26.1982 12.1033C26.6521 11.8715 26.7279 11.6866 26.7404 11.6503C26.7279 11.614 26.6521 11.4291 26.1982 11.1973C25.6929 10.9393 24.925 10.7502 24.0222 10.7502C23.1193 10.7502 22.3514 10.9393 21.8461 11.1973C21.3923 11.4291 21.3164 11.614 21.3039 11.6503ZM20.9365 9.41617C21.7777 8.98656 22.8702 8.75024 24.0222 8.75024C25.1741 8.75024 26.2666 8.98656 27.1078 9.41617C27.8951 9.81822 28.7428 10.5539 28.7428 11.6503C28.7428 12.7467 27.8951 13.4824 27.1078 13.8844C26.2666 14.314 25.1741 14.5504 24.0222 14.5504C22.8702 14.5504 21.7777 14.314 20.9365 13.8844C20.1492 13.4824 19.3015 12.7467 19.3015 11.6503C19.3015 10.5539 20.1492 9.81822 20.9365 9.41617Z" fill="black"/>
<path fill-rule="evenodd" clip-rule="evenodd" d="M15.2689 7.83839C13.0264 8.98363 12 10.3855 12 11.6502C12 12.9149 13.0264 14.3168 15.2689 15.462C17.4575 16.5797 20.5507 17.3004 24.0221 17.3004C27.4936 17.3004 30.5868 16.5797 32.7754 15.462C35.0179 14.3168 36.0443 12.9149 36.0443 11.6502C36.0443 10.3855 35.0179 8.98363 32.7754 7.83839C30.5868 6.72071 27.4936 6 24.0221 6C20.5507 6 17.4575 6.72071 15.2689 7.83839ZM14.3593 6.05721C16.8838 4.76799 20.3016 4 24.0221 4C27.7427 4 31.1605 4.76799 33.685 6.05721C36.1555 7.31887 38.0443 9.24207 38.0443 11.6502C38.0443 14.0583 36.1555 15.9815 33.685 17.2432C31.1605 18.5324 27.7427 19.3004 24.0221 19.3004C20.3016 19.3004 16.8838 18.5324 14.3593 17.2432C11.8888 15.9815 10 14.0583 10 11.6502C10 9.24207 11.8888 7.31887 14.3593 6.05721Z" fill="black"/>
<path fill-rule="evenodd" clip-rule="evenodd" d="M12 36.3511V11.6502H10V36.3511C10 38.7592 11.8888 40.6824 14.3593 41.9441C16.8838 43.2333 20.3016 44.0013 24.0221 44.0013C26.5684 44.0013 28.973 43.6416 31.0464 43.0013H24.0221V42.0013C20.5507 42.0013 17.4575 41.2806 15.2689 40.1629C13.0264 39.0177 12 37.6158 12 36.3511ZM32.8464 40.1264L33.3236 41.1012L32.6836 42.4085C33.031 42.2624 33.3652 42.1075 33.685 41.9441C36.1555 40.6824 38.0443 38.7592 38.0443 36.3511V11.6502H36.0443V36.3511C36.0443 37.6024 35.0396 38.9879 32.8464 40.1264Z" fill="black"/>
<path d="M15.7904 21.3005C15.7904 21.8528 15.3427 22.3005 14.7904 22.3005C14.2382 22.3005 13.7904 21.8528 13.7904 21.3005C13.7904 20.7483 14.2382 20.3005 14.7904 20.3005C15.3427 20.3005 15.7904 20.7483 15.7904 21.3005Z" fill="black"/>
<path d="M15.7904 28.9005C15.7904 29.4528 15.3427 29.9005 14.7904 29.9005C14.2382 29.9005 13.7904 29.4528 13.7904 28.9005C13.7904 28.3482 14.2382 27.9005 14.7904 27.9005C15.3427 27.9005 15.7904 28.3482 15.7904 28.9005Z" fill="black"/>
<path d="M15.7904 36.5009C15.7904 37.0531 15.3427 37.5009 14.7904 37.5009C14.2382 37.5009 13.7904 37.0531 13.7904 36.5009C13.7904 35.9486 14.2382 35.5009 14.7904 35.5009C15.3427 35.5009 15.7904 35.9486 15.7904 36.5009Z" fill="black"/>
<path d="M15.7904 25.1006C15.7904 25.6529 15.3427 26.1006 14.7904 26.1006C14.2382 26.1006 13.7904 25.6529 13.7904 25.1006C13.7904 24.5483 14.2382 24.1006 14.7904 24.1006C15.3427 24.1006 15.7904 24.5483 15.7904 25.1006Z" fill="black"/>
<path d="M15.7904 32.7007C15.7904 33.253 15.3427 33.7007 14.7904 33.7007C14.2382 33.7007 13.7904 33.253 13.7904 32.7007C13.7904 32.1484 14.2382 31.7007 14.7904 31.7007C15.3427 31.7007 15.7904 32.1484 15.7904 32.7007Z" fill="black"/>
<path fill-rule="evenodd" clip-rule="evenodd" d="M23.0221 18.3005C23.0221 17.7483 23.4699 17.3004 24.0221 17.3004L33.3236 17.3005C33.6687 17.3005 33.9894 17.4785 34.1721 17.7712C34.3547 18.064 34.3735 18.4303 34.2218 18.7402L33.5069 20.2006L34.2218 21.661C34.3576 21.9384 34.3576 22.2629 34.2218 22.5403L33.5069 24.0007L34.2218 25.4611C34.3576 25.7385 34.3576 26.0631 34.2218 26.3405L33.5069 27.8008L34.2218 29.2612C34.3576 29.5386 34.3576 29.8632 34.2218 30.1406L33.5069 31.6009L34.2218 33.0613C34.3576 33.3387 34.3576 33.6633 34.2218 33.9407L33.5069 35.4011L34.2218 36.8614C34.3576 37.1388 34.3576 37.4634 34.2218 37.7408L33.5069 39.2012L34.2218 40.6616C34.3576 40.9389 34.3576 41.2635 34.2218 41.5409L33.2916 43.441C33.1238 43.7839 32.7753 44.0013 32.3935 44.0013L24.0221 44.0013C23.4699 44.0013 23.0221 43.5536 23.0221 43.0013C23.0221 42.449 23.4698 42.0013 24.0221 42.0013L31.7696 42.0013L32.2102 41.1012L31.4953 39.6409C31.3595 39.3635 31.3595 39.0389 31.4953 38.7615L32.2102 37.3011L31.4953 35.8407C31.3595 35.5633 31.3595 35.2388 31.4953 34.9614L32.2102 33.501L31.4953 32.0406C31.3595 31.7632 31.3595 31.4387 31.4953 31.1613L32.2102 29.7009L31.4953 28.2405C31.3595 27.9631 31.3595 27.6385 31.4953 27.3611L32.2102 25.9008L31.4953 24.4404C31.3595 24.163 31.3595 23.8384 31.4953 23.561L32.2102 22.1007L31.4953 20.6403C31.3595 20.3629 31.3595 20.0383 31.4953 19.7609L31.7207 19.3005L24.0221 19.3004C23.4699 19.3004 23.0221 18.8528 23.0221 18.3005Z" fill="black"/>
</svg>

<svg
  xmlns="http://www.w3.org/2000/svg"
  width="24"
  height="24"
  viewBox="0 0 24 24"
  fill="none"
  stroke="currentColor"
  stroke-width="2"
  stroke-linecap="round"
  stroke-linejoin="round"
>
  <path
    fill-rule="evenodd"
    d="M21.304 11.65c.012.037.088.221.542.453.505.258 1.273.447 2.176.447s1.67-.189 2.176-.447c.454-.232.53-.416.542-.453-.012-.036-.088-.22-.542-.453-.505-.258-1.273-.447-2.176-.447s-1.67.19-2.176.447c-.454.232-.53.417-.542.453m-.367-2.234c.84-.43 1.933-.666 3.085-.666s2.245.237 3.086.666c.787.402 1.635 1.138 1.635 2.234s-.848 1.832-1.635 2.234c-.841.43-1.934.666-3.086.666s-2.244-.236-3.085-.666c-.788-.402-1.636-1.137-1.636-2.234s.848-1.832 1.636-2.234"
    clip-rule="evenodd"
  />
  <path
    fill-rule="evenodd"
    d="M15.269 7.838C13.026 8.984 12 10.386 12 11.65c0 1.265 1.026 2.667 3.269 3.812 2.188 1.118 5.282 1.838 8.753 1.838s6.565-.72 8.753-1.838c2.243-1.145 3.27-2.547 3.27-3.812s-1.027-2.666-3.27-3.812C30.587 6.721 27.494 6 24.022 6c-3.471 0-6.564.72-8.753 1.838m-.91-1.78C16.884 4.767 20.302 4 24.022 4s7.139.768 9.663 2.057c2.47 1.262 4.36 3.185 4.36 5.593s-1.89 4.332-4.36 5.593c-2.525 1.29-5.942 2.057-9.663 2.057s-7.138-.768-9.663-2.057C11.89 15.982 10 14.058 10 11.65s1.889-4.331 4.36-5.593"
    clip-rule="evenodd"
  />
  <path
    fill-rule="evenodd"
    d="M12 36.351v-24.7h-2v24.7c0 2.408 1.889 4.331 4.36 5.593 2.524 1.29 5.942 2.057 9.662 2.057 2.546 0 4.951-.36 7.024-1h-7.024v-1c-3.471 0-6.564-.72-8.753-1.838C13.026 39.018 12 37.616 12 36.35m20.846 3.775.478.975-.64 1.307q.52-.218 1.001-.464c2.47-1.262 4.36-3.185 4.36-5.593v-24.7h-2v24.7c0 1.251-1.005 2.637-3.199 3.775"
    clip-rule="evenodd"
  />
  <path d="M15.79 21.3a1 1 0 1 1-2 0 1 1 0 0 1 2 0" />
  <path d="M15.79 28.9a1 1 0 1 1-2 0 1 1 0 0 1 2 0" />
  <path d="M15.79 36.5a1 1 0 1 1-2 0 1 1 0 0 1 2 0" />
  <path d="M15.79 25.1a1 1 0 1 1-2 0 1 1 0 0 1 2 0" />
  <path d="M15.79 32.7a1 1 0 1 1-2 0 1 1 0 0 1 2 0" />
  <path
    fill-rule="evenodd"
    d="M23.022 18.3a1 1 0 0 1 1-1h9.302a1 1 0 0 1 .898 1.44l-.715 1.46.715 1.461a1 1 0 0 1 0 .88L33.507 24l.715 1.46a1 1 0 0 1 0 .88l-.715 1.46.715 1.46a1 1 0 0 1 0 .88l-.715 1.46.715 1.46a1 1 0 0 1 0 .88l-.715 1.46.715 1.46a1 1 0 0 1 0 .88l-.715 1.46.715 1.46a1 1 0 0 1 0 .88l-.93 1.9a1 1 0 0 1-.898.56h-8.372a1 1 0 0 1 0-2h7.748l.44-.9-.715-1.46a1 1 0 0 1 0-.88l.715-1.46-.715-1.46a1 1 0 0 1 0-.88l.715-1.46-.715-1.46a1 1 0 0 1 0-.88l.715-1.46-.715-1.46a1 1 0 0 1 0-.88l.715-1.46-.715-1.46a1 1 0 0 1 0-.88l.715-1.46-.715-1.46a1 1 0 0 1 0-.88l.226-.46h-7.699a1 1 0 0 1-1-1"
    clip-rule="evenodd"
  />
</svg>
